X: 1
T: Black and Grey
O: The Dancing Master, 7th Edition, 1686
B: "Gems - The Best of the Country Dance and Song Society", CDSS, 1993, p._
Z: 2011 John Chambers <jc:trillian.mit.edu>
R: reel
M: C|
L: 1/8
K: Am
"A"|\
"Am"A2A2 d2B2 | c4 A2d2 | "G"B4 G2g2 | B4 G4 |
"Am"A2A2 "G"d2B2 | "F"c3B "Dm"A2d2 | "G"B2G2 BcdB | "Am"A4 e4 :|
"B"|: "Am"a2e2 "Dm"fedc | "Am"a2e2 "Dm"fedc | "G"g2d2 BcdB | "G"g2d2 BcdB |
"Am"a2e2 "F"fgag | "C"agfe "Dm"fedc | "G"B2G2 BcdB | "Am"A4 e4 :|
%%begintext align
The author notes that partners should maintain eye contact throughout the A1 
figure, which is similar to the end of Mad Robin. Dancers moving through the
center pass face to face.
%%endtext
